X:1
T:Title
%%score { ( 1 3 4 ) | ( 2 5 6 ) }
L:1/8
M:3/4
K:Eb
V:1 treble nm="Grand Piano"
V:3 treble 
V:4 treble 
V:2 bass 
V:5 bass 
V:6 bass 
V:1
 z2 z[Q:1/4=92] G G>[FA] | [GB]3 G G>E | [DF]3 [DF] [DF]>[DG] | [DA]3 [DF] [DF]>E |[M:3/8] G3 | %5
 GG>[FA] |[M:3/4] [GB]3 G G>E | [Ec]3 [DF] [DF]>[DG] | [DA]3 D D>F |[M:2/4] E4 |[M:4/4] z2 c6 | %11
 z2 B6 | c>B z2 D>D z z/ c/ | z2 G6 | z2 c6 | z2 B6 | z2 A6 |[M:11/16] z/ z/ z/ z/ z/ z/ z E3/2- | %18
 E-<E z/ z/ z/ z/ z/ z |] %19
V:2
 z2 z [E,B,E] [E,B,E]>[E,B,] | [E,E]3 [E,B,E] [E,B,E]>[E,G,] | [B,,B,]3 [B,,B,] [B,,A,]>[B,,G,] | %3
 [B,,F,]3 [B,,A,] [B,,A,]>[E,G,] |[M:3/8] [E,B,E]3 | [E,B,E][E,B,E]>[E,B,] | %6
[M:3/4] [E,E]3 [E,B,E] [E,B,E]>[E,G,] | [A,,A,]3 [B,,A,] [B,,A,]>[B,,G,] | %8
 [B,,F,]3 [B,,A,B,] [B,,A,B,]>[B,,A,B,] |[M:2/4] [E,G,B,]4 |[M:4/4][K:treble] z2 A6 | %11
 z2 G6[K:bass] | z2 F6[K:bass][K:treble] | z2 E6[K:bass] | z2 A6 | z2 G6[K:bass] | z2 F6[K:bass] | %17
[M:11/16] E>DE>E, z/ B, | [A,,A,]<[E,G,] z/ z/ z/ z/ z/ z |] %19
V:3
 x6 | x6 | x6 | x6 |[M:3/8] x3 | x3 |[M:3/4] x6 | x6 | x6 |[M:2/4] x4 |[M:4/4] e>d z2 E>E z z/ e/ | %11
 d>c z z/ E/ E>E E2 | z2 A6 | B>A z z/ B,/ B,>B, B,2 | e>d z2 E>E z z/ e/ | d>c z z/ E/ E>E E2 | %16
 c>B z2 B,>B, z z/ G/ |[M:11/16] G3/2.F z [G,E]/C/D | C<B, z/ z/ z/ z/ z/ z |] %19
V:4
 x6 | x6 | x6 | x6 |[M:3/8] x3 | x3 |[M:3/4] x6 | x6 | x6 |[M:2/4] x4 |[M:4/4] z4 z2 E2 | x8 | %12
 z4 z2 D2 | x8 | z4 z2 E2 | x8 | z4 z2 B,2 |[M:11/16] x11/2 | x11/2 |] %19
V:5
 x6 | x6 | x6 | x6 |[M:3/8] x3 | x3 |[M:3/4] x6 | x6 | x6 |[M:2/4] x4 | %10
[M:4/4][K:treble] G>B z2 A,>A, z z/ c/ | B>A z z/[K:bass] E,/ E,>E, E,2 | %12
 A>G z2[K:bass] B,,>B,, z z/[K:treble] A/ | G>F z z/[K:bass] E,/ E,>E, E,2 | G>B z2 A,>A, z z/ c/ | %15
 B>A z z/[K:bass] E,/ E,>E, E,2 | A>G z2[K:bass] B,,>B,, z z/ E/ | %17
[M:11/16] z/ z/ z/ z/ z/ z/ z A,,3/2 | x11/2 |] %19
V:6
 x6 | x6 | x6 | x6 |[M:3/8] x3 | x3 |[M:3/4] x6 | x6 | x6 |[M:2/4] x4 | %10
[M:4/4][K:treble] z4 z2 A,2 | x7/2[K:bass] x9/2 | z4[K:bass] z2 B,,2[K:treble] | %13
 x7/2[K:bass] x9/2 | z4 z2 A,2 | x7/2[K:bass] x9/2 | z4[K:bass] z2 B,,2 |[M:11/16] x11/2 | x11/2 |] %19

